X:099
T:Hornpipe TS.099
M:C|
L:1/8
Q:1/2=90
S:Thomas Sands’ MS,1810,Lincolnshire
R:.hornpipe
O:England;Lincolnshire
Z:vmp.Ruairidh Greig, 2011
K:D
“s-q in ms”AG|GFED A,DFD|A,DFD A,DFD|GFED A,DFD|AGFG EBAG|
GFED A,DFD|A,DFD A,DFD|GFED A,DAG|F2D2D2:|
|:A|dcdA FDFA|BABc dcBA|Bdce dfeg|fdge dcBA|
dcdA FDFA|BABc dcBA|Bdce dfeg|fedc {e}d2″cr.in ms”d:|]

